svg/eye_circle_outline.svg

<svg xmlns="http://www.w3.org/2000/svg" viewBox="0 0 24 24"><path d="M12 22A10 10 0 0 1 2 12 10 10 0 0 1 12 2a10 10 0 0 1 10 10 10 10 0 0 1-10 10m0-2a8 8 0 0 0 8-8 8 8 0 0 0-8-8 8 8 0 0 0-8 8 8 8 0 0 0 8 8m0-9a1 1 0 0 1 1 1 1 1 0 0 1-1 1 1 1 0 0 1-1-1 1 1 0 0 1 1-1m0-3c2.63 0 5 1.57 6 4a6.505 6.505 0 0 1-8.5 3.5A6.52 6.52 0 0 1 6 12c1-2.43 3.37-4 6-4m0 1.5A2.5 2.5 0 0 0 9.5 12a2.5 2.5 0 0 0 2.5 2.5 2.5 2.5 0 0 0 2.5-2.5A2.5 2.5 0 0 0 12 9.5"/></svg>

<?xml version="1.0" encoding="UTF-8"?><!DOCTYPE svg PUBLIC "-//W3C//DTD SVG 1.1//EN" "http://www.w3.org/Graphics/SVG/1.1/DTD/svg11.dtd"><svg xmlns="http://www.w3.org/2000/svg" xmlns:xlink="http://www.w3.org/1999/xlink" version="1.1" id="mdi-eye-circle-outline" width="24" height="24" viewBox="0 0 24 24"><path d="M12,22A10,10 0 0,1 2,12A10,10 0 0,1 12,2A10,10 0 0,1 22,12A10,10 0 0,1 12,22M12,20A8,8 0 0,0 20,12A8,8 0 0,0 12,4A8,8 0 0,0 4,12A8,8 0 0,0 12,20M12,11A1,1 0 0,1 13,12A1,1 0 0,1 12,13A1,1 0 0,1 11,12A1,1 0 0,1 12,11M12,8C14.63,8 17,9.57 18,12C16.62,15.31 12.81,16.88 9.5,15.5C7.92,14.84 6.66,13.58 6,12C7,9.57 9.37,8 12,8M12,9.5A2.5,2.5 0 0,0 9.5,12A2.5,2.5 0 0,0 12,14.5A2.5,2.5 0 0,0 14.5,12A2.5,2.5 0 0,0 12,9.5" /></svg>
